src/images/conversations.svg

<svg viewBox="0 0 109 87" xmlns="http://www.w3.org/2000/svg"><g fill="none" stroke="#394553" stroke-linejoin="round" stroke-width="2.5"><path d="m58.71 55.45v3.84a2.44 2.44 0 0 1 -2.41 2.45h-18.68l-8.5 8.42v-8.41h-5.56a2.45 2.45 0 0 1 -2.44-2.44v-21.65a2.45 2.45 0 0 1 2.44-2.44h4.16"/><path d="m50.56 35.22h5.68a2.47 2.47 0 0 1 2.46 2.44v13.5"/><path d="m31.98 35.22h14.05"/><path d="m65.51 28.94v12a2.43 2.43 0 0 1 -2.41 2.45h-18.68l-8.5 8.42v-8.44h-5.55a2.45 2.45 0 0 1 -2.44-2.44v-21.65a2.45 2.45 0 0 1 2.44-2.44h32.63a2.47 2.47 0 0 1 2.46 2.44v5.41"/><path d="m71.38 51.39 8.5 8.42v-8.41h5.56a2.45 2.45 0 0 0 2.44-2.4v-21.68a2.45 2.45 0 0 0 -2.44-2.44h-32.68a2.47 2.47 0 0 0 -2.46 2.44v21.62a2.44 2.44 0 0 0 2.41 2.46z"/></g></svg>

<svg id="Calque_2" data-name="Calque 2" xmlns="http://www.w3.org/2000/svg" viewBox="0 0 109 87"><defs><style>.cls-1{fill:none;stroke:#394553;stroke-linejoin:round;stroke-width:2.5px;}</style></defs><title>conversations</title><path class="cls-1" d="M58.71,55.45v3.84a2.44,2.44,0,0,1-2.41,2.45H37.62l-8.5,8.42V61.75H23.56a2.45,2.45,0,0,1-2.44-2.44V37.66a2.45,2.45,0,0,1,2.44-2.44h4.16"/><path class="cls-1" d="M50.56,35.22h5.68a2.47,2.47,0,0,1,2.46,2.44v13.5"/><line class="cls-1" x1="31.98" y1="35.22" x2="46.03" y2="35.22"/><path class="cls-1" d="M65.51,28.94v12a2.43,2.43,0,0,1-2.41,2.45H44.42l-8.5,8.42V43.37H30.37a2.45,2.45,0,0,1-2.44-2.44V19.28a2.45,2.45,0,0,1,2.44-2.44H63a2.47,2.47,0,0,1,2.46,2.44v5.41"/><path class="cls-1" d="M71.38,51.39l8.5,8.42V51.4h5.56A2.45,2.45,0,0,0,87.88,49V27.32a2.45,2.45,0,0,0-2.44-2.44H52.76a2.47,2.47,0,0,0-2.46,2.44V48.94a2.44,2.44,0,0,0,2.41,2.46Z"/></svg>
